X: 36243
T: Sea Of Dreams, The
R: reel
M: 4/4
K: Eminor
Jf6-f{gf}e|Jg6-f e|Je6{fe}de|Jf6z3/2e/|d6-d{D}B|Je4-e3-E|z8|
z8|Jf6-f{gf}e|Jg6-f e|Je6{fe}de|Jf6z3/2e/|d6-d{D}B|Je4-e3-E|
z6FG|{AB}A6-AB|{AB}A6-AF|A6{B}AF|E8-|E8|-E2{DB}z6|z8|

